X: 9991
T: Devil's Road, The
R: reel
M: 4/4
K: Dminor
D>EF>E D>EF>E|D>EF>G A2 A2|G>AB>A G>AB>A|1 G>FE>F D>F A2:|2 G>FE>F D4||
|:A>DD2 D/E/F E>D|A>DD2 D/E/F E>D|G2G2 F2F2|1 E>DE>F D>F A2:|2 E>DE>F D4||

